Sweet-Rainbow/icons/slack.svg

<?xml version="1.0" encoding="UTF-8" standalone="no"?>
<!-- Generator: Gravit.io -->

<svg
   xmlns:dc="http://purl.org/dc/elements/1.1/"
   xmlns:cc="http://creativecommons.org/ns#"
   xmlns:rdf="http://www.w3.org/1999/02/22-rdf-syntax-ns#"
   xmlns:svg="http://www.w3.org/2000/svg"
   xmlns="http://www.w3.org/2000/svg"
   xmlns:sodipodi="http://sodipodi.sourceforge.net/DTD/sodipodi-0.dtd"
   xmlns:inkscape="http://www.inkscape.org/namespaces/inkscape"
   style="isolation:isolate"
   viewBox="0 0 36 36"
   width="48"
   height="48"
   version="1.1"
   id="svg37"
   sodipodi:docname="slack.svg"
   inkscape:version="0.92.4 (5da689c313, 2019-01-14)">
  <metadata
     id="metadata43">
    <rdf:RDF>
      <cc:Work
         rdf:about="">
        <dc:format>image/svg+xml</dc:format>
        <dc:type
           rdf:resource="http://purl.org/dc/dcmitype/StillImage" />
        <dc:title></dc:title>
      </cc:Work>
    </rdf:RDF>
  </metadata>
  <defs
     id="defs41" />
  <sodipodi:namedview
     pagecolor="#ffffff"
     bordercolor="#666666"
     borderopacity="1"
     objecttolerance="10"
     gridtolerance="10"
     guidetolerance="10"
     inkscape:pageopacity="0"
     inkscape:pageshadow="2"
     inkscape:window-width="640"
     inkscape:window-height="480"
     id="namedview39"
     showgrid="false"
     inkscape:zoom="29.365243"
     inkscape:cx="25.325443"
     inkscape:cy="32"
     inkscape:current-layer="svg37"
     units="px" />
  <linearGradient
     id="_lgradient_122"
     x1="0"
     y1="0.5"
     x2="1"
     y2="0.5"
     gradientTransform="matrix(14,0,0,13.694,25.111,9)"
     gradientUnits="userSpaceOnUse">
    <stop
       offset="0%"
       stop-opacity="1"
       style="stop-color:rgb(67,233,123)"
       id="stop2" />
    <stop
       offset="97.82608695652173%"
       stop-opacity="1"
       style="stop-color:rgb(56,249,215)"
       id="stop4" />
  </linearGradient>
  <linearGradient
     id="_lgradient_123"
     x1="0"
     y1="0.5"
     x2="0.90748805"
     y2="0.92007786"
     gradientTransform="matrix(14.5,0,0,13.694,25.111,24.306)"
     gradientUnits="userSpaceOnUse">
    <stop
       offset="0%"
       stop-opacity="1"
       style="stop-color:rgb(247,241,7)"
       id="stop9" />
    <stop
       offset="83.88839793817618%"
       stop-opacity="1"
       style="stop-color:rgb(255,187,36)"
       id="stop11" />
  </linearGradient>
  <linearGradient
     id="_lgradient_124"
     x1="0"
     y1="0.5"
     x2="1"
     y2="0.5"
     gradientTransform="matrix(13.694,0,0,13.694,9.806,24.306)"
     gradientUnits="userSpaceOnUse">
    <stop
       offset="0%"
       stop-opacity="1"
       style="stop-color:rgb(211,16,39)"
       id="stop16" />
    <stop
       offset="97.82608695652173%"
       stop-opacity="1"
       style="stop-color:rgb(234,56,77)"
       id="stop18" />
  </linearGradient>
  <linearGradient
     id="_lgradient_125"
     x1="0"
     y1="0.5"
     x2="0.90748805"
     y2="0.92007786"
     gradientTransform="matrix(14.805,0,0,13.194,9,9.5)"
     gradientUnits="userSpaceOnUse">
    <stop
       offset="0%"
       stop-opacity="1"
       style="stop-color:rgb(0,196,255)"
       id="stop23" />
    <stop
       offset="83.88839793817618%"
       stop-opacity="1"
       style="stop-color:rgb(0,114,255)"
       id="stop25" />
  </linearGradient>
  <linearGradient
     id="_lgradient_126"
     x1="0"
     y1="0.5"
     x2="1"
     y2="0.5"
     gradientTransform="scale(48,47.7)"
     gradientUnits="userSpaceOnUse">
    <stop
       offset="0%"
       stop-opacity="1"
       style="stop-color:rgb(117,127,154)"
       id="stop30" />
    <stop
       offset="98.69565217391305%"
       stop-opacity="1"
       style="stop-color:rgb(215,221,232)"
       id="stop32" />
  </linearGradient>
  <g
     id="g855"
     transform="matrix(0.75,0,0,0.75,0,0.28155109)">
    <path
       id="path7"
       d="m 28.333,9 v 0 c 1.779,0 3.223,1.488 3.223,3.321 v 7.052 c 0,1.833 -1.444,3.321 -3.223,3.321 v 0 c -1.778,0 -3.222,-1.488 -3.222,-3.321 V 12.321 C 25.111,10.488 26.555,9 28.333,9 Z m 5.462,13.694 h 2.515 c 1.04,0 2.186,-0.789 2.557,-1.762 q 0.716,-1.879 -0.672,-3.266 -1.387,-1.388 -3.266,-0.672 c -0.973,0.371 -1.762,1.517 -1.762,2.558 v 2.514 c 0,0.347 0.281,0.628 0.628,0.628 z"
       style="fill:url(#_lgradient_122);fill-rule:evenodd"
       inkscape:connector-curvature="0" />
    <path
       id="path14"
       d="m 25.111,27.528 v 0 c 0,-1.779 1.532,-3.222 3.418,-3.222 h 7.664 c 1.887,0 3.418,1.443 3.418,3.222 v 0 c 0,1.778 -1.531,3.222 -3.418,3.222 h -7.664 c -1.886,0 -3.418,-1.444 -3.418,-3.222 z m 0.629,4.528 h 2.514 c 1.041,0 2.187,0.79 2.557,1.762 q 0.716,1.879 -0.671,3.267 -1.388,1.387 -3.267,0.671 c -0.972,-0.37 -1.762,-1.516 -1.762,-2.557 v -2.514 c 0,-0.347 0.282,-0.629 0.629,-0.629 z"
       style="fill:url(#_lgradient_123);fill-rule:evenodd"
       inkscape:connector-curvature="0" />
    <path
       id="path21"
       d="m 20.278,24.306 v 0 c 1.778,0 3.222,1.488 3.222,3.321 v 7.052 C 23.5,36.512 22.056,38 20.278,38 v 0 c -1.779,0 -3.222,-1.488 -3.222,-3.321 v -7.052 c 0,-1.833 1.443,-3.321 3.222,-3.321 z m -5.157,0.5 h -2.514 c -1.041,0 -2.187,0.79 -2.558,1.762 q -0.716,1.879 0.672,3.267 1.388,1.387 3.266,0.671 c 0.973,-0.37 1.763,-1.516 1.763,-2.557 v -2.514 c 0,-0.347 -0.282,-0.629 -0.629,-0.629 z"
       style="fill:url(#_lgradient_124);fill-rule:evenodd"
       inkscape:connector-curvature="0" />
    <path
       id="path28"
       d="m 9,19.472 v 0 c 0,-1.778 1.531,-3.222 3.418,-3.222 h 7.664 c 1.887,0 3.418,1.444 3.418,3.222 v 0 c 0,1.779 -1.531,3.222 -3.418,3.222 H 12.418 C 10.531,22.694 9,21.251 9,19.472 Z m 14.177,-4.028 h -2.515 c -1.041,0 -2.186,-0.789 -2.557,-1.762 q -0.716,-1.879 0.671,-3.266 1.388,-1.388 3.267,-0.672 c 0.973,0.371 1.762,1.517 1.762,2.558 v 2.514 c 0,0.347 -0.282,0.628 -0.628,0.628 z"
       style="fill:url(#_lgradient_125);fill-rule:evenodd"
       inkscape:connector-curvature="0" />
    <path
       id="path35"
       d="m 18.81,43.32 v 0 c 1.065,0.287 1.697,1.385 1.41,2.45 v 0 c -0.287,1.065 -1.385,1.697 -2.45,1.41 v 0 C 12.67,45.81 8.16,42.79 4.95,38.6 1.74,34.41 0,29.28 0,24 0,17.64 2.53,11.53 7.03,7.03 11.53,2.53 17.64,0 24,0 30.36,0 36.47,2.53 40.97,7.03 45.47,11.53 48,17.64 48,24 c 0,5.26 -1.73,10.37 -4.91,14.55 -3.19,4.18 -7.66,7.2 -12.73,8.6 v 0 c -1.065,0.293 -2.167,-0.335 -2.46,-1.4 v 0 c -0.293,-1.065 0.335,-2.167 1.4,-2.46 v 0 C 33.52,42.13 37.25,39.61 39.91,36.13 42.56,32.64 44,28.38 44,24 44,18.7 41.89,13.61 38.14,9.86 34.39,6.11 29.3,4 24,4 18.7,4 13.61,6.11 9.86,9.86 6.11,13.61 4,18.7 4,24 c 0,4.4 1.45,8.68 4.13,12.17 2.67,3.49 6.43,6.01 10.68,7.15 z"
       style="fill:url(#_lgradient_126)"
       inkscape:connector-curvature="0" />
  </g>
</svg>

<?xml version="1.0" encoding="UTF-8" standalone="no"?><!-- Generator: Gravit.io --><svg xmlns="http://www.w3.org/2000/svg" xmlns:xlink="http://www.w3.org/1999/xlink" style="isolation:isolate" viewBox="0 0 48 48" width="48pt" height="48pt"><linearGradient id="_lgradient_122" x1="0" y1="0.5" x2="1" y2="0.5" gradientTransform="matrix(14,0,0,13.694,25.111,9)" gradientUnits="userSpaceOnUse"><stop offset="0%" stop-opacity="1" style="stop-color:rgb(67,233,123)"/><stop offset="97.82608695652173%" stop-opacity="1" style="stop-color:rgb(56,249,215)"/></linearGradient><path d=" M 28.333 9 L 28.333 9 C 30.112 9 31.556 10.488 31.556 12.321 L 31.556 19.373 C 31.556 21.206 30.112 22.694 28.333 22.694 L 28.333 22.694 C 26.555 22.694 25.111 21.206 25.111 19.373 L 25.111 12.321 C 25.111 10.488 26.555 9 28.333 9 Z  M 33.795 22.694 L 36.31 22.694 C 37.35 22.694 38.496 21.905 38.867 20.932 Q 39.583 19.053 38.195 17.666 Q 36.808 16.278 34.929 16.994 C 33.956 17.365 33.167 18.511 33.167 19.552 L 33.167 22.066 C 33.167 22.413 33.448 22.694 33.795 22.694 Z " fill-rule="evenodd" fill="url(#_lgradient_122)"/><linearGradient id="_lgradient_123" x1="0" y1="0.5" x2="0.9074880558539661" y2="0.9200778838291643" gradientTransform="matrix(14.5,0,0,13.694,25.111,24.306)" gradientUnits="userSpaceOnUse"><stop offset="0%" stop-opacity="1" style="stop-color:rgb(247,241,7)"/><stop offset="83.88839793817618%" stop-opacity="1" style="stop-color:rgb(255,187,36)"/></linearGradient><path d=" M 25.111 27.528 L 25.111 27.528 C 25.111 25.749 26.643 24.306 28.529 24.306 L 36.193 24.306 C 38.08 24.306 39.611 25.749 39.611 27.528 L 39.611 27.528 C 39.611 29.306 38.08 30.75 36.193 30.75 L 28.529 30.75 C 26.643 30.75 25.111 29.306 25.111 27.528 Z  M 25.74 32.056 L 28.254 32.056 C 29.295 32.056 30.441 32.846 30.811 33.818 Q 31.527 35.697 30.14 37.085 Q 28.752 38.472 26.873 37.756 C 25.901 37.386 25.111 36.24 25.111 35.199 L 25.111 32.685 C 25.111 32.338 25.393 32.056 25.74 32.056 Z " fill-rule="evenodd" fill="url(#_lgradient_123)"/><linearGradient id="_lgradient_124" x1="0" y1="0.5" x2="1" y2="0.5" gradientTransform="matrix(13.694,0,0,13.694,9.806,24.306)" gradientUnits="userSpaceOnUse"><stop offset="0%" stop-opacity="1" style="stop-color:rgb(211,16,39)"/><stop offset="97.82608695652173%" stop-opacity="1" style="stop-color:rgb(234,56,77)"/></linearGradient><path d=" M 20.278 24.306 L 20.278 24.306 C 22.056 24.306 23.5 25.794 23.5 27.627 L 23.5 34.679 C 23.5 36.512 22.056 38 20.278 38 L 20.278 38 C 18.499 38 17.056 36.512 17.056 34.679 L 17.056 27.627 C 17.056 25.794 18.499 24.306 20.278 24.306 Z  M 15.121 24.806 L 12.607 24.806 C 11.566 24.806 10.42 25.596 10.049 26.568 Q 9.333 28.447 10.721 29.835 Q 12.109 31.222 13.987 30.506 C 14.96 30.136 15.75 28.99 15.75 27.949 L 15.75 25.435 C 15.75 25.088 15.468 24.806 15.121 24.806 Z " fill-rule="evenodd" fill="url(#_lgradient_124)"/><linearGradient id="_lgradient_125" x1="0" y1="0.5" x2="0.9074880558539661" y2="0.9200778838291643" gradientTransform="matrix(14.805,0,0,13.194,9,9.5)" gradientUnits="userSpaceOnUse"><stop offset="0%" stop-opacity="1" style="stop-color:rgb(0,196,255)"/><stop offset="83.88839793817618%" stop-opacity="1" style="stop-color:rgb(0,114,255)"/></linearGradient><path d=" M 9 19.472 L 9 19.472 C 9 17.694 10.531 16.25 12.418 16.25 L 20.082 16.25 C 21.969 16.25 23.5 17.694 23.5 19.472 L 23.5 19.472 C 23.5 21.251 21.969 22.694 20.082 22.694 L 12.418 22.694 C 10.531 22.694 9 21.251 9 19.472 Z  M 23.177 15.444 L 20.662 15.444 C 19.621 15.444 18.476 14.655 18.105 13.682 Q 17.389 11.803 18.776 10.416 Q 20.164 9.028 22.043 9.744 C 23.016 10.115 23.805 11.261 23.805 12.302 L 23.805 14.816 C 23.805 15.163 23.523 15.444 23.177 15.444 Z " fill-rule="evenodd" fill="url(#_lgradient_125)"/><linearGradient id="_lgradient_126" x1="0" y1="0.5" x2="1" y2="0.5" gradientTransform="matrix(48,0,0,47.7,0,0)" gradientUnits="userSpaceOnUse"><stop offset="0%" stop-opacity="1" style="stop-color:rgb(117,127,154)"/><stop offset="98.69565217391305%" stop-opacity="1" style="stop-color:rgb(215,221,232)"/></linearGradient><path d=" M 18.81 43.32 L 18.81 43.32 C 19.875 43.607 20.507 44.705 20.22 45.77 L 20.22 45.77 C 19.933 46.835 18.835 47.467 17.77 47.18 L 17.77 47.18 C 12.67 45.81 8.16 42.79 4.95 38.6 C 1.74 34.41 0 29.28 0 24 C 0 17.64 2.53 11.53 7.03 7.03 C 11.53 2.53 17.64 0 24 0 C 30.36 0 36.47 2.53 40.97 7.03 C 45.47 11.53 48 17.64 48 24 C 48 29.26 46.27 34.37 43.09 38.55 C 39.9 42.73 35.43 45.75 30.36 47.15 L 30.36 47.15 C 29.295 47.443 28.193 46.815 27.9 45.75 L 27.9 45.75 C 27.607 44.685 28.235 43.583 29.3 43.29 L 29.3 43.29 C 33.52 42.13 37.25 39.61 39.91 36.13 C 42.56 32.64 44 28.38 44 24 C 44 18.7 41.89 13.61 38.14 9.86 C 34.39 6.11 29.3 4 24 4 C 18.7 4 13.61 6.11 9.86 9.86 C 6.11 13.61 4 18.7 4 24 C 4 28.4 5.45 32.68 8.13 36.17 C 10.8 39.66 14.56 42.18 18.81 43.32 Z " fill="url(#_lgradient_126)"/></svg>
